src/images/social/telegram.svg

<?xml version="1.0" encoding="UTF-8"?>
<svg width="30px" height="27px" viewBox="0 0 30 27" version="1.1" xmlns="http://www.w3.org/2000/svg" xmlns:xlink="http://www.w3.org/1999/xlink">
    <!-- Generator: Sketch 51.2 (57519) - http://www.bohemiancoding.com/sketch -->
    <title>telegram</title>
    <desc>Created with Sketch.</desc>
    <defs></defs>
    <g id="Page-1" stroke="none" stroke-width="1" fill="none" fill-rule="evenodd">
        <g id="Front-Page" transform="translate(-904.000000, -6788.000000)" fill="#000000" fill-rule="nonzero">
            <g id="Footer-Section" transform="translate(195.000000, 6148.000000)">
                <g id="Social" transform="translate(544.000000, 638.000000)">
                    <g id="telegram" transform="translate(165.000000, 2.000000)">
                        <path d="M0.5299,12.5645 L7.4425,15.1445 L10.1181,23.7492 C10.2893,24.3003 10.9632,24.504 11.4105,24.1383 L15.2637,20.9971 C15.6676,20.668 16.2429,20.6516 16.665,20.958 L23.6148,26.0037 C24.0933,26.3515 24.7712,26.0893 24.8912,25.5111 L29.9823,1.022 C30.1133,0.3904 29.4927,-0.1365 28.8913,0.0961 L0.5218,11.0402 C-0.1783,11.3102 -0.1722,12.3014 0.5299,12.5645 Z M9.6869,13.7711 L23.1967,5.4504 C23.4395,5.3013 23.6893,5.6296 23.4808,5.823 L12.3313,16.187 C11.9394,16.5518 11.6866,17.04 11.615,17.5699 L11.2352,20.3845 C11.1849,20.7603 10.657,20.7976 10.5533,20.4339 L9.0926,15.3014 C8.9253,14.716 9.1691,14.0907 9.6869,13.7711 Z" id="XMLID_497_"></path>
                    </g>
                </g>
            </g>
        </g>
    </g>
</svg>

<svg width="30" height="27" xmlns="http://www.w3.org/2000/svg">
  <path d="M.53 12.565l6.912 2.58 2.676 8.604a.814.814 0 0 0 1.293.39l3.853-3.142a1.15 1.15 0 0 1 1.401-.039l6.95 5.046a.815.815 0 0 0 1.276-.493l5.091-24.489a.815.815 0 0 0-1.09-.926L.521 11.04c-.7.27-.694 1.261.008 1.525zm9.157 1.206l13.51-8.32c.242-.15.492.179.284.372L12.33 16.187a2.311 2.311 0 0 0-.716 1.383l-.38 2.814c-.05.376-.578.414-.682.05L9.093 15.3a1.36 1.36 0 0 1 .594-1.53z" fill="#000" fill-rule="nonzero"/>
</svg>
